X:1
T:Sow Got the Measles
M:4/4
L:1/8
K:F
 A2 FF F2 F2| Ac c2 c3 c| c2 GG G3 B| AA F2 F4| A2 F2 A2 F2| AA c2 c3 c|\
 c2 cc cC CC| C2 EE F4|

